icons/src/scalable/default/ui/focus-top-bar-symbolic.svg

<?xml version="1.0" encoding="UTF-8" standalone="no"?>
<svg
   xmlns:dc="http://purl.org/dc/elements/1.1/"
   xmlns:cc="http://creativecommons.org/ns#"
   xmlns:rdf="http://www.w3.org/1999/02/22-rdf-syntax-ns#"
   xmlns:svg="http://www.w3.org/2000/svg"
   xmlns="http://www.w3.org/2000/svg"
   xmlns:sodipodi="http://sodipodi.sourceforge.net/DTD/sodipodi-0.dtd"
   xmlns:inkscape="http://www.inkscape.org/namespaces/inkscape"
   width="16.025"
   height="16"
   version="1.1"
   id="svg4"
   sodipodi:docname="focus-top-bar-symbolic.svg"
   inkscape:version="1.0.2 (e86c870879, 2021-01-15)">
  <metadata
     id="metadata10">
    <rdf:RDF>
      <cc:Work
         rdf:about="">
        <dc:format>image/svg+xml</dc:format>
        <dc:type
           rdf:resource="http://purl.org/dc/dcmitype/StillImage" />
      </cc:Work>
    </rdf:RDF>
  </metadata>
  <defs
     id="defs8" />
  <sodipodi:namedview
     pagecolor="#ffffff"
     bordercolor="#666666"
     borderopacity="1"
     objecttolerance="10"
     gridtolerance="10"
     guidetolerance="10"
     inkscape:pageopacity="0"
     inkscape:pageshadow="2"
     inkscape:window-width="1920"
     inkscape:window-height="1016"
     id="namedview6"
     showgrid="true"
     inkscape:zoom="38.890873"
     inkscape:cx="7.3943779"
     inkscape:cy="4.0158854"
     inkscape:window-x="0"
     inkscape:window-y="27"
     inkscape:window-maximized="1"
     inkscape:current-layer="svg4">
    <inkscape:grid
       type="xygrid"
       id="grid1404" />
  </sodipodi:namedview>
  <g
     transform="translate(-77.07419,-178.99767)"
     style="display:inline"
     id="g3340">
    <path
       id="path5525-3"
       style="color:#000000;font-style:normal;font-variant:normal;font-weight:normal;font-stretch:normal;font-size:medium;line-height:normal;font-family:sans-serif;text-indent:0;text-align:start;text-decoration:none;text-decoration-line:none;text-decoration-style:solid;text-decoration-color:#000000;letter-spacing:normal;word-spacing:normal;text-transform:none;writing-mode:lr-tb;direction:ltr;baseline-shift:baseline;text-anchor:start;white-space:normal;clip-rule:nonzero;display:inline;overflow:visible;visibility:visible;opacity:1;isolation:auto;mix-blend-mode:normal;color-interpolation:sRGB;color-interpolation-filters:linearRGB;solid-color:#000000;solid-opacity:1;fill:#bebebe;fill-opacity:1;fill-rule:nonzero;stroke:none;stroke-width:4.00079;stroke-linecap:butt;stroke-linejoin:miter;stroke-miterlimit:4;stroke-dasharray:none;stroke-dashoffset:0;stroke-opacity:1;marker:none;color-rendering:auto;image-rendering:auto;shape-rendering:auto;text-rendering:auto;enable-background:accumulate"
       d="M 4 3 C 2.755834 3.0146 1.8459225 2.9693956 1.1015625 3.3847656 C 0.7293865 3.5924156 0.4362715 3.9441525 0.2734375 4.3828125 C 0.1105605 4.8214725 0.05078125 5.34239 0.05078125 6 L 0 13 L 1 13 L 1.0117188 6 L 15.011719 6 L 15 13 L 16 13 L 16.011719 6 C 16.012819 5.36201 15.951669 4.8214725 15.789062 4.3828125 C 15.626228 3.9441625 15.317487 3.5924156 14.945312 3.3847656 C 14.200952 2.9694456 13.306666 3.01457 12.0625 3 L 12.058594 3 L 10.078125 3 L 6 3 L 4.0039062 3 L 4 3 z M 9 4 L 10 4 L 10 5 L 9 5 L 9 4 z M 11 4 L 12 4 L 12 5 L 11 5 L 11 4 z M 13.011719 4 L 14.011719 4 L 14.011719 5 L 13.011719 5 L 13.011719 4 z "
       transform="translate(77.07419,178.99767)" />
  </g>
</svg>

<svg version="1.1" viewBox="0 0 16.025 16" xmlns="http://www.w3.org/2000/svg">
 <g transform="translate(-77.074 -179)">
  <path transform="translate(77.074 179)" d="m4 3c-1.2442 0.0146-2.1541-0.030604-2.8984 0.38477-0.37218 0.20765-0.66529 0.55939-0.82812 0.99805-0.16288 0.43866-0.22266 0.95958-0.22266 1.6172l-0.050781 7h1l0.011719-7h14l-0.011719 7h1l0.011719-7c0.0011-0.63799-0.06005-1.1785-0.22266-1.6172-0.16283-0.43865-0.47158-0.7904-0.84375-0.99805-0.74436-0.41532-1.6386-0.3702-2.8828-0.38477h-0.003906-1.9805-4.0781-1.9961-0.0039062zm5 1h1v1h-1v-1zm2 0h1v1h-1v-1zm2.0117 0h1v1h-1v-1z" color="#000000" color-rendering="auto" fill="#bebebe" image-rendering="auto" shape-rendering="auto" solid-color="#000000" style="isolation:auto;mix-blend-mode:normal;text-decoration-color:#000000;text-decoration-line:none;text-decoration-style:solid;text-indent:0;text-transform:none;white-space:normal"/>
 </g>
</svg>
